X: 4
T: Donald Blue - Ornette's Trip To Belfast
C:
M: 4/4
L: 1/8
R: reel
K: Dmaj
P:A
|:dBAF AFAB|dBAF E2D2|dBAF AFAd|BB2A B2e2:|
|:ABde fafd|fafd edB2|ABde fafd|BB2A B2d2:|
P:B
K: Dmin
|d3e fede|c3A dcAG|F3G Ac(3ccc|cdfg agfe|
d3e fede|c3A dcAG|F3G Ac(3ccc|cdfg f2fe|
d3e fede|c3A dcAG|FcGF Ac(3ccc|cdfg agfe|
d3e fede|c3A dcAG|FcGF Ac(3ccc|cdfg f4|
|:a2c'a ad'c'a|c'aga fd(3ddd|a2c'a ad'c'a|c'aga f2(3def|
abaf d3f|c3B ABcA|FcGF Ac(3ccc|1cdfg f3g:|2cdfg f2ed||

